public/images/quote.svg

<svg xmlns:xlink="http://www.w3.org/1999/xlink" xmlns="http://www.w3.org/2000/svg" width="31" height="23" viewBox="0 0 31 23" fill="none">
<path d="M30.512 1.088C28.4587 2.61333 26.7867 4.28533 25.496 6.104C24.264 7.864 23.648 9.41866 23.648 10.768C23.648 12.352 24.616 14.3467 26.552 16.752V16.928L18.104 22.384C16.168 20.9173 15.2 19.0107 15.2 16.664C15.2 13.7307 16.7547 10.768 19.864 7.776C23.032 4.72533 26.464 2.32 30.16 0.559995L30.512 1.088ZM16.08 1.088C14.0267 2.61333 12.3547 4.28533 11.064 6.104C9.832 7.864 9.216 9.41866 9.216 10.768C9.216 12.352 10.184 14.3467 12.12 16.752V16.928L3.672 22.384C1.736 20.9173 0.768001 19.0107 0.768001 16.664C0.768001 13.7307 2.32267 10.768 5.432 7.776C8.6 4.72533 12.032 2.32 15.728 0.559995L16.08 1.088Z" fill="#353B2A"/>
</svg>

<svg xmlns="http://www.w3.org/2000/svg" width="31" height="23" fill="none"><path fill="#353B2A" d="M30.512 1.088q-3.08 2.288-5.016 5.016-1.848 2.64-1.848 4.664 0 2.376 2.904 5.984v.176l-8.448 5.456q-2.904-2.2-2.904-5.72 0-4.4 4.664-8.888Q24.616 3.201 30.16.56zm-14.432 0Q13 3.376 11.064 6.104q-1.848 2.64-1.848 4.664 0 2.376 2.904 5.984v.176l-8.448 5.456q-2.904-2.2-2.904-5.72 0-4.4 4.664-8.888Q10.184 3.201 15.728.56z"/></svg>
